X: 100
T: No_37_Song_on_the_Mountain_Top.krn
N: Derived from No_37_Song_on_the_Mountain_Top.krn
%%abc-version 2.0
%%abcx-abcm2ps-target-version 5.9.1 (29 Sep 2008)
%%abc-creator hum2abc beta
%%abcx-conversion-date 2019/03/15 08:37:56
%%humdrum-veritas 3305746446
%%humdrum-veritas-data 2460133561
%%linebreak <none>
%%barnumbers 0
L: 1/8
M: 2/4
K: C clef=bass
C [I:setbarnb 1]| 
C3A, | 
A,3C | 
C3/A,/ C3/A,/ ||  
[M:3/4]A,2G,3C ]|:  
C3/A,/G,3A, ||  
[M:2/4]A,/G,3/ G,3/G,/ | 
G,4 ||  
[M:3/4]G,3/A,/ G,E,G,2 ||  
[M:2/4]G,3/E,/ A,3/G,/ | 
G,4 | 
E,3/A,/ A,3/A,/ | 
A,/G,3/ G,3/A,/ ||  
[M:3/4]G,2G,3C :|]  



